X: 0
T: Mrs. James MacInnes
C: William Marshall
R: strathspey
M: 4/4
L: 1/8
K: Gmaj
E|"G"D<GB>G c>A B2|c<.AB>G "D"A<A,~A,>E|"G"D<GB>G c>GB>g|"C"e>c "(D)"B/c/d/c/ "G"B<GG>E|
"G"D<GB>G c>A B2|c>.AB>G "D"A<A,~A,>E|"G"D<GB>G c>GB>g|"C"e>c "(D)"B/c/d/c/ "G"B<GG||
e/f/|"G"~g>d B<g d<b g2|d>bg>e f>a "D"ag/f/|g>dB>g d>gB>g|"C".e>c B/c/d/c/ B<G "G"(3Gef|
"G"g>d B<g d<b g2|d>b (3gfe f<a "D"a>.f|g>d (3gab (3agf g>d|"C".e>c B/c/d/c/ "G"B<G G||